flaticon/business/basket.svg

<svg xmlns="http://www.w3.org/2000/svg" width="32" height="32" viewBox="0 0 24 24">
    <path d="M 22.800781 10.019531 L 14.824219 10.019531 L 22.414062 2.429688 C 22.878906 1.960938 22.878906 1.203125 22.414062 0.734375 C 21.945312 0.265625 21.183594 0.265625 20.714844 0.734375 L 12.5625 8.886719 C 12.382812 8.84375 12.195312 8.816406 12 8.816406 C 11.804688 8.816406 11.617188 8.84375 11.4375 8.886719 L 3.285156 0.734375 C 2.816406 0.265625 2.054688 0.265625 1.585938 0.734375 C 1.359375 0.960938 1.238281 1.261719 1.238281 1.582031 C 1.238281 1.902344 1.363281 2.203125 1.585938 2.429688 L 9.175781 10.019531 L 1.199219 10.019531 C 0.539062 10.019531 0 10.554688 0 11.21875 C 0 11.878906 0.539062 12.417969 1.199219 12.417969 L 1.316406 12.417969 L 4.921875 22.507812 C 5.160156 23.171875 5.792969 23.617188 6.496094 23.617188 L 17.503906 23.617188 C 18.207031 23.617188 18.839844 23.171875 19.078125 22.507812 L 22.679688 12.417969 L 22.800781 12.417969 C 23.460938 12.417969 24 11.878906 24 11.21875 C 24 10.554688 23.460938 10.019531 22.800781 10.019531 Z M 21.28125 1.296875 C 21.4375 1.144531 21.691406 1.144531 21.847656 1.296875 C 22.003906 1.453125 22.003906 1.707031 21.847656 1.863281 L 13.921875 9.789062 C 13.761719 9.574219 13.570312 9.382812 13.347656 9.234375 Z M 12.523438 9.710938 C 12.941406 9.859375 13.277344 10.164062 13.457031 10.566406 L 13.484375 10.628906 C 13.488281 10.636719 13.488281 10.640625 13.492188 10.648438 C 13.515625 10.710938 13.535156 10.777344 13.550781 10.84375 C 13.558594 10.867188 13.5625 10.890625 13.570312 10.914062 C 13.589844 11.019531 13.601562 11.121094 13.601562 11.21875 C 13.601562 11.316406 13.589844 11.414062 13.570312 11.507812 C 13.566406 11.523438 13.566406 11.535156 13.5625 11.546875 C 13.546875 11.625 13.523438 11.707031 13.484375 11.800781 L 13.449219 11.882812 C 13.417969 11.953125 13.382812 12.019531 13.339844 12.082031 C 13.324219 12.113281 13.300781 12.140625 13.28125 12.167969 C 13.246094 12.214844 13.207031 12.261719 13.167969 12.304688 C 13.144531 12.328125 13.121094 12.355469 13.09375 12.378906 C 13.046875 12.425781 12.992188 12.46875 12.9375 12.507812 C 12.917969 12.523438 12.902344 12.539062 12.882812 12.550781 C 12.808594 12.601562 12.730469 12.640625 12.648438 12.679688 C 12.621094 12.691406 12.59375 12.699219 12.566406 12.710938 C 12.503906 12.734375 12.4375 12.753906 12.371094 12.769531 C 12.34375 12.777344 12.316406 12.785156 12.285156 12.789062 C 12.195312 12.804688 12.097656 12.816406 12 12.816406 C 11.902344 12.816406 11.808594 12.804688 11.714844 12.789062 C 11.683594 12.785156 11.65625 12.777344 11.628906 12.769531 C 11.5625 12.753906 11.496094 12.734375 11.433594 12.710938 C 11.40625 12.699219 11.378906 12.691406 11.355469 12.679688 C 11.273438 12.640625 11.191406 12.601562 11.117188 12.550781 C 11.097656 12.539062 11.082031 12.523438 11.0625 12.507812 C 11.007812 12.46875 10.957031 12.425781 10.90625 12.378906 C 10.878906 12.355469 10.855469 12.328125 10.832031 12.304688 C 10.792969 12.261719 10.757812 12.214844 10.71875 12.167969 C 10.699219 12.140625 10.675781 12.113281 10.660156 12.085938 C 10.613281 12.011719 10.570312 11.9375 10.535156 11.855469 C 10.445312 11.652344 10.398438 11.4375 10.398438 11.21875 C 10.398438 11 10.445312 10.785156 10.535156 10.578125 C 10.710938 10.171875 11.054688 9.859375 11.476562 9.710938 C 11.640625 9.65625 11.816406 9.617188 12 9.617188 C 12.183594 9.617188 12.355469 9.65625 12.523438 9.710938 Z M 2.035156 1.582031 C 2.035156 1.472656 2.078125 1.375 2.152344 1.300781 C 2.308594 1.144531 2.5625 1.144531 2.71875 1.300781 L 10.652344 9.234375 C 10.429688 9.382812 10.238281 9.574219 10.078125 9.789062 L 2.152344 1.863281 C 2.078125 1.789062 2.035156 1.6875 2.035156 1.582031 Z M 0.800781 11.21875 C 0.800781 10.996094 0.980469 10.816406 1.199219 10.816406 L 9.632812 10.816406 C 9.632812 10.828125 9.632812 10.839844 9.628906 10.851562 C 9.613281 10.972656 9.601562 11.09375 9.601562 11.21875 C 9.601562 11.34375 9.613281 11.464844 9.628906 11.582031 C 9.632812 11.59375 9.632812 11.605469 9.632812 11.617188 L 1.199219 11.617188 C 0.980469 11.617188 0.800781 11.4375 0.800781 11.21875 Z M 18.324219 22.238281 C 18.199219 22.585938 17.871094 22.816406 17.503906 22.816406 L 6.496094 22.816406 C 6.128906 22.816406 5.796875 22.585938 5.675781 22.242188 L 2.167969 12.417969 L 9.921875 12.417969 C 9.925781 12.425781 9.933594 12.429688 9.9375 12.4375 C 9.980469 12.511719 10.027344 12.582031 10.078125 12.652344 C 10.089844 12.667969 10.101562 12.683594 10.113281 12.699219 C 10.234375 12.847656 10.367188 12.984375 10.519531 13.101562 C 10.539062 13.117188 10.558594 13.128906 10.578125 13.144531 C 10.636719 13.191406 10.699219 13.230469 10.761719 13.269531 C 10.78125 13.28125 10.800781 13.292969 10.816406 13.304688 C 10.980469 13.398438 11.160156 13.472656 11.34375 13.523438 C 11.367188 13.53125 11.390625 13.535156 11.414062 13.542969 C 11.484375 13.558594 11.558594 13.574219 11.632812 13.585938 C 11.65625 13.589844 11.683594 13.59375 11.710938 13.597656 C 11.804688 13.609375 11.902344 13.617188 12 13.617188 C 12.097656 13.617188 12.195312 13.609375 12.292969 13.597656 C 12.316406 13.59375 12.34375 13.589844 12.371094 13.585938 C 12.441406 13.574219 12.515625 13.558594 12.585938 13.542969 C 12.609375 13.535156 12.632812 13.53125 12.65625 13.523438 C 12.84375 13.472656 13.019531 13.398438 13.183594 13.304688 C 13.203125 13.292969 13.21875 13.28125 13.238281 13.269531 C 13.300781 13.230469 13.363281 13.191406 13.425781 13.144531 C 13.445312 13.128906 13.464844 13.117188 13.480469 13.101562 C 13.632812 12.984375 13.765625 12.847656 13.886719 12.699219 C 13.898438 12.683594 13.910156 12.667969 13.921875 12.652344 C 13.972656 12.582031 14.019531 12.511719 14.0625 12.4375 C 14.066406 12.429688 14.074219 12.425781 14.078125 12.417969 L 21.832031 12.417969 Z M 22.800781 11.617188 L 14.363281 11.617188 C 14.363281 11.613281 14.363281 11.613281 14.363281 11.609375 C 14.386719 11.480469 14.398438 11.351562 14.398438 11.21875 C 14.398438 11.085938 14.386719 10.957031 14.367188 10.828125 C 14.363281 10.824219 14.363281 10.820312 14.363281 10.816406 L 22.800781 10.816406 C 23.019531 10.816406 23.199219 10.996094 23.199219 11.21875 C 23.199219 11.4375 23.019531 11.617188 22.800781 11.617188 Z M 22.800781 11.617188"/>
    <path d="M4.398438 14.816406C4.398438 15.039062 4.578125 15.21875 4.800781 15.21875L19.199219 15.21875C19.421875 15.21875 19.601562 15.039062 19.601562 14.816406 19.601562 14.597656 19.421875 14.417969 19.199219 14.417969L4.800781 14.417969C4.578125 14.417969 4.398438 14.597656 4.398438 14.816406zM18 16.417969L6 16.417969C5.777344 16.417969 5.601562 16.597656 5.601562 16.816406 5.601562 17.039062 5.777344 17.21875 6 17.21875L18 17.21875C18.222656 17.21875 18.398438 17.039062 18.398438 16.816406 18.398438 16.597656 18.222656 16.417969 18 16.417969zM16.800781 18.417969L7.199219 18.417969C6.980469 18.417969 6.800781 18.597656 6.800781 18.816406 6.800781 19.039062 6.980469 19.21875 7.199219 19.21875L16.800781 19.21875C17.019531 19.21875 17.199219 19.039062 17.199219 18.816406 17.199219 18.597656 17.019531 18.417969 16.800781 18.417969zM16 20.417969L8 20.417969C7.777344 20.417969 7.601562 20.597656 7.601562 20.816406 7.601562 21.039062 7.777344 21.21875 8 21.21875L16 21.21875C16.222656 21.21875 16.398438 21.039062 16.398438 20.816406 16.398438 20.597656 16.222656 20.417969 16 20.417969zM16 20.417969"/>
</svg>

<svg xmlns="http://www.w3.org/2000/svg" width="32" height="32" viewBox="0 0 24 24">
    <path d="M22.8 10.02h-7.976l7.59-7.59a1.205 1.205 0 0 0 0-1.696 1.202 1.202 0 0 0-1.7 0l-8.151 8.153a2.411 2.411 0 0 0-.563-.07c-.195 0-.383.027-.563.07L3.286.734a1.202 1.202 0 0 0-1.7 0 1.187 1.187 0 0 0-.347.848c0 .32.125.621.348.848l7.59 7.59H1.199a1.2 1.2 0 0 0 0 2.398h.117l3.606 10.09c.238.664.871 1.11 1.574 1.11h11.008c.703 0 1.336-.446 1.574-1.11l3.602-10.09h.12a1.2 1.2 0 1 0 0-2.398zm-1.519-8.723a.408.408 0 0 1 .567 0 .4.4 0 0 1 0 .566L13.922 9.79a2.347 2.347 0 0 0-.574-.555zM12.523 9.71a1.6 1.6 0 0 1 .934.855l.027.063.008.02c.024.062.043.128.059.195.008.023.011.047.02.07a1.424 1.424 0 0 1 0 .594c-.005.015-.005.027-.009.039a1.32 1.32 0 0 1-.078.254l-.035.082a1.23 1.23 0 0 1-.11.199c-.015.031-.038.059-.058.086a1.912 1.912 0 0 1-.113.137c-.023.023-.047.05-.074.074-.047.047-.102.09-.156.129-.02.015-.036.031-.055.043-.074.05-.153.09-.235.129-.027.011-.054.02-.082.03a1.612 1.612 0 0 1-.195.06 1.68 1.68 0 0 1-.371.047 1.72 1.72 0 0 1-.566-.106c-.028-.012-.055-.02-.079-.031-.082-.04-.164-.078-.238-.13-.02-.01-.035-.027-.055-.042a1.608 1.608 0 0 1-.156-.13c-.027-.023-.05-.05-.074-.073-.039-.043-.074-.09-.113-.137-.02-.027-.043-.055-.059-.082a1.568 1.568 0 0 1-.125-1.508 1.6 1.6 0 0 1 .942-.867c.164-.055.34-.094.523-.094.184 0 .355.04.523.094zM2.035 1.582a.4.4 0 0 1 .684-.281l7.933 7.933c-.222.149-.414.34-.574.555L2.152 1.863a.4.4 0 0 1-.117-.281zM.801 11.219c0-.223.18-.403.398-.403h8.434c0 .012 0 .024-.004.036a2.85 2.85 0 0 0-.027.367c0 .125.011.246.027.363.004.012.004.023.004.035H1.199a.4.4 0 0 1-.398-.398zm17.523 11.02a.872.872 0 0 1-.82.577H6.496a.87.87 0 0 1-.82-.574l-3.508-9.824h7.754c.004.008.012.012.015.02.043.074.09.144.141.214l.035.047c.121.149.254.285.407.403.02.015.039.027.058.043.059.046.121.085.184.125.02.011.039.023.054.035.164.093.344.168.528.218.023.008.047.012.07.02a3.613 3.613 0 0 0 .297.055c.094.011.191.02.289.02a2.46 2.46 0 0 0 .586-.075c.023-.008.047-.012.07-.02.188-.05.364-.125.528-.218.02-.012.035-.024.054-.035.063-.04.125-.079.188-.125.02-.016.039-.028.054-.043.153-.118.286-.254.407-.403l.035-.047c.05-.07.098-.14.14-.214.004-.008.012-.012.016-.02h7.754zm4.477-10.622h-8.438v-.008c.024-.129.035-.257.035-.39s-.011-.262-.03-.39c-.005-.005-.005-.009-.005-.013h8.438a.401.401 0 0 1 0 .801zm0 0"/>
    <path d="M4.398 14.816c0 .223.18.403.403.403h14.398a.401.401 0 0 0 0-.8l-14.398-.001a.401.401 0 0 0-.403.398zm0 0M18 16.418H6a.398.398 0 0 0-.398.398c0 .223.175.403.398.403h12c.223 0 .398-.18.398-.403a.398.398 0 0 0-.398-.398zm0 0M16.8 18.418H7.2a.4.4 0 0 0 0 .8h9.6a.401.401 0 0 0 0-.8zm0 0M16 20.418H8a.398.398 0 0 0-.398.398c0 .223.175.403.398.403h8c.223 0 .398-.18.398-.403a.398.398 0 0 0-.398-.398zm0 0"/>
</svg>
